X: 535
U:~=!turn!
U:t=!tenuto!
M:C
L:1/8
K:D
"With grandeur and Expression"
{A,B,C}!5!u(D>A)(tF>.A) (tD>.A)(tF>.A) | !arpeggio!L(3[DAf]ed (3c{/e}dB vA3 !4!vF/(D/ | C>A) (tG>.A) (tF>.A) (tD>.A) | "4th string."L(3FED (3"_cres."C{/E}DB, vA,2 A, v((3A,/B,/C/ |
{ABc}!f!(d>f) (3LAdf (3Lafd (3LAFD | (3A,DF (3AFd A2 !3!v(A(3B/^c/^d/ | e)>Lg (3LBeg (3Lbge (3LBGE | (3LCEG (3LCEA [D2F2] [DF] ((3A/B/c/) |
(d>.f) (3Adf (3Lafd (3AFD | (3LA,DF (3LAFd (A2tA) !5!vG/F/ | "_dim"((3GBe) (~t[CE]>.G) ((3FAd) [DA]>[A,G] | "4th string.""_calando"((3!4!F>!3!E!2!D) ((3!1!C<!4!F!3!E) !2!D2 D |]


